assets/images/trading.svg

<svg fill="#82bc00" viewBox="0 0 100 100" xmlns="http://www.w3.org/2000/svg"><path d="m50 6.96875c-23.724554 0-43.03125 19.30667-43.03125 43.03125v12a2.0002 2.0002 0 0 0 2.03125 2h12.28125c.301638.981034.830326 1.85706 1.53125 2.5625.341398.3436.327969.27495.5.40625.172031.1312.385082.2997.65625.5.542335.4005 1.28588.9321 2.15625 1.5625 1.740739 1.2609 3.995942 2.91585 6.25 4.53125 4.497682 3.2234 8.91699 6.3604 8.9375 6.375h.03125c1.879284 1.367165 4.346648 1.334264 6.1875.125 1.268831.717428 2.499613.9375 3.46875.9375 3.085334 0 7.474186-1.42685 12.15625-3.21875 4.665894-1.7856 9.301975-3.9417 12.125-5.875.0098-.01.02151-.02425.03125-.03125 1.523231-.998 2.6875-2.6605 2.6875-4.4375 0-.9281-.244057-1.83755-.65625-2.59375-.171405-.3145-.422746-.57045-.625-.84375h9.59375c-5.630443 14.6071-19.703924 25-36.3125 25-10.677896 0-20.418857-4.128552-27.46875-11h3.46875a2.0002 2.0002 0 1 0 0-4h-8a2.0002 2.0002 0 0 0 -.1875 0 2.0002 2.0002 0 0 0 -1.8125 2v8a2.0002 2.0002 0 1 0 4 0v-2.84375c7.776944 7.44059 18.422534 11.84375 30 11.84375 19.196292 0 35.295837-12.70865 40.8125-30.09375a2.0002 2.0002 0 0 0 .0625-.15625 2.0002 2.0002 0 0 0 .125-.40625 2.0002 2.0002 0 0 0 .03125-.1875c1.1539-3.8825 1.96875-7.90245 1.96875-12.15625v-14a2.0002 2.0002 0 0 0 -2-2h-20.40625l-16.75-7.8125a2.0002 2.0002 0 0 0 -1.15625-.1875 2.0002 2.0002 0 0 0 -.5625.1875l-16.03125 7.8125h-21.65625c6.098759-13.555516 19.709785-22.96875 35.5625-22.96875 10.677895 0 20.39049 4.102148 27.4375 10.96875h-3.4375a2.0002 2.0002 0 1 0 0 4h8a2.0002 2.0002 0 0 0 2-2v-8a2.0002 2.0002 0 0 0 -2.21875-2.03125 2.0002 2.0002 0 0 0 -1.78125 2.03125v2.875c-7.777063-7.442474-18.421852-11.90625-30-11.90625zm3 23.25 16.3125 7.59375a2.0002 2.0002 0 0 0 .84375.1875h18.84375v12c0 3.4853-.582571 6.7864-1.4375 10h-14.21875l-20.84375-23.34375a2.0002 2.0002 0 0 0 -2.21875-.53125l-12.59375 4.8125c-.0093.003-.02191-.002-.03125 0-.105877.0271-.227561.0625-.34375.0625-.478917 0-1.3125-.94094-1.3125-1.6875 0-.49263.272972-.89606.65625-1.125.008-.005-.0081-.02665 0-.03125l16.34375-7.9375zm-40.09375 7.78125h19.46875c-.118575.44007-.375.83782-.375 1.3125 0 2.91168 2.127481 5.6875 5.3125 5.6875.495083 0 .981491-.0917 1.4375-.21875a2.0002 2.0002 0 0 0 .1875-.0625l11.46875-4.375 22.4375 25.09375c.0082.01-.0081.02225 0 .03125.526726.6076.864241 1.03215 1 1.28125.137836.2529.15625.3142.15625.6875 0 .5624.08684.4839-.90625 1.125a2.0002 2.0002 0 0 0 -.03125.03125c-2.231622 1.5338-6.858499 3.721-11.34375 5.4375-4.485251 1.7166-9.144472 2.96875-10.71875 2.96875-.622614 0-.787321.05054-1.1875-.1875.463627-2.005859-.249511-4.207976-1.96875-5.53125l.03125-.03125s-.09285-.0625-.09375-.0625c-.08386-.069-3.976226-3.3088-8.0625-6.6875-2.064997-1.7074-4.151972-3.4081-5.78125-4.75s-2.633444-2.1737-3.0625-2.5c-1.031071-.7844-2.338522-1.25-3.71875-1.25-2.61363 0-4.827803 1.686638-5.71875 4h-10.40625v-10c0-4.193173.655049-8.217711 1.875-12zm14.25 22c.503286 0 .947535.12865 1.3125.40625-.0075-.01 1.311979 1.06745 2.9375 2.40625s3.717286 3.07465 5.78125 4.78125c4.127928 3.413 8.15625 6.75 8.15625 6.75a2.0002 2.0002 0 0 0 .09375.0625c.666405.4904.779576 1.30705.28125 1.96875-.510947.6785-1.373493.82775-2.03125.34375a2.0002 2.0002 0 0 0 -.03125-.03125s-4.435026-3.1482-8.9375-6.375c-2.251237-1.6134-4.519841-3.2468-6.25-4.5-.865079-.6266-1.601367-1.1758-2.125-1.5625-.261817-.1934-.482777-.329-.625-.4375s-.342614-.3449-.0625-.0625c-.401557-.4045-.65625-.9383-.65625-1.5625 0-1.2494.94345-2.1875 2.15625-2.1875z" fill="#82bc00" transform=""/></svg>

<svg fill="#82BC00" xmlns:dc="http://purl.org/dc/elements/1.1/" xmlns:cc="http://creativecommons.org/ns#" xmlns:rdf="http://www.w3.org/1999/02/22-rdf-syntax-ns#" xmlns:svg="http://www.w3.org/2000/svg" xmlns="http://www.w3.org/2000/svg" xmlns:sodipodi="http://sodipodi.sourceforge.net/DTD/sodipodi-0.dtd" xmlns:inkscape="http://www.inkscape.org/namespaces/inkscape" version="1.1" x="0px" y="0px" viewBox="0 0 100 100"><g transform="translate(0,-952.36218)"><path style="font-size:medium;font-style:normal;font-variant:normal;font-weight:normal;font-stretch:normal;text-indent:0;text-align:start;text-decoration:none;line-height:normal;letter-spacing:normal;word-spacing:normal;text-transform:none;direction:ltr;block-progression:tb;writing-mode:lr-tb;text-anchor:start;baseline-shift:baseline;opacity:1;color:#000000;fill:#82BC00;fill-opacity:1;stroke:none;stroke-width:4;marker:none;visibility:visible;display:inline;overflow:visible;enable-background:accumulate;font-family:Sans;-inkscape-font-specification:Sans" d="M 50 6.96875 C 26.275446 6.96875 6.96875 26.27542 6.96875 50 L 6.96875 62 A 2.0002 2.0002 0 0 0 9 64 L 21.28125 64 C 21.582888 64.981034 22.111576 65.85706 22.8125 66.5625 C 23.153898 66.9061 23.140469 66.83745 23.3125 66.96875 C 23.484531 67.09995 23.697582 67.26845 23.96875 67.46875 C 24.511085 67.86925 25.25463 68.40085 26.125 69.03125 C 27.865739 70.29215 30.120942 71.9471 32.375 73.5625 C 36.872682 76.7859 41.29199 79.9229 41.3125 79.9375 L 41.34375 79.9375 C 43.223034 81.304665 45.690398 81.271764 47.53125 80.0625 C 48.800081 80.779928 50.030863 81 51 81 C 54.085334 81 58.474186 79.57315 63.15625 77.78125 C 67.822144 75.99565 72.458225 73.83955 75.28125 71.90625 C 75.29105 71.89625 75.30276 71.882 75.3125 71.875 C 76.835731 70.877 78 69.2145 78 67.4375 C 78 66.5094 77.755943 65.59995 77.34375 64.84375 C 77.172345 64.52925 76.921004 64.2733 76.71875 64 L 86.3125 64 C 80.682057 78.6071 66.608576 89 50 89 C 39.322104 89 29.581143 84.871448 22.53125 78 L 26 78 A 2.0002 2.0002 0 1 0 26 74 L 18 74 A 2.0002 2.0002 0 0 0 17.8125 74 A 2.0002 2.0002 0 0 0 16 76 L 16 84 A 2.0002 2.0002 0 1 0 20 84 L 20 81.15625 C 27.776944 88.59684 38.422534 93 50 93 C 69.196292 93 85.295837 80.29135 90.8125 62.90625 A 2.0002 2.0002 0 0 0 90.875 62.75 A 2.0002 2.0002 0 0 0 91 62.34375 A 2.0002 2.0002 0 0 0 91.03125 62.15625 C 92.18515 58.27375 93 54.2538 93 50 L 93 36 A 2.0002 2.0002 0 0 0 91 34 L 70.59375 34 L 53.84375 26.1875 A 2.0002 2.0002 0 0 0 52.6875 26 A 2.0002 2.0002 0 0 0 52.125 26.1875 L 36.09375 34 L 14.4375 34 C 20.536259 20.444484 34.147285 11.03125 50 11.03125 C 60.677895 11.03125 70.39049 15.133398 77.4375 22 L 74 22 A 2.0002 2.0002 0 1 0 74 26 L 82 26 A 2.0002 2.0002 0 0 0 84 24 L 84 16 A 2.0002 2.0002 0 0 0 81.78125 13.96875 A 2.0002 2.0002 0 0 0 80 16 L 80 18.875 C 72.222937 11.432526 61.578148 6.96875 50 6.96875 z M 53 30.21875 L 69.3125 37.8125 A 2.0002 2.0002 0 0 0 70.15625 38 L 89 38 L 89 50 C 89 53.4853 88.417429 56.7864 87.5625 60 L 73.34375 60 L 52.5 36.65625 A 2.0002 2.0002 0 0 0 50.28125 36.125 L 37.6875 40.9375 C 37.6782 40.9405 37.66559 40.9355 37.65625 40.9375 C 37.550373 40.9646 37.428689 41 37.3125 41 C 36.833583 41 36 40.05906 36 39.3125 C 36 38.81987 36.272972 38.41644 36.65625 38.1875 C 36.66425 38.1825 36.64815 38.16085 36.65625 38.15625 L 53 30.21875 z M 12.90625 38 L 32.375 38 C 32.256425 38.44007 32 38.83782 32 39.3125 C 32 42.22418 34.127481 45 37.3125 45 C 37.807583 45 38.293991 44.9083 38.75 44.78125 A 2.0002 2.0002 0 0 0 38.9375 44.71875 L 50.40625 40.34375 L 72.84375 65.4375 C 72.85195 65.4475 72.83565 65.45975 72.84375 65.46875 C 73.370476 66.07635 73.707991 66.5009 73.84375 66.75 C 73.981586 67.0029 74 67.0642 74 67.4375 C 74 67.9999 74.08684 67.9214 73.09375 68.5625 A 2.0002 2.0002 0 0 0 73.0625 68.59375 C 70.830878 70.12755 66.204001 72.31475 61.71875 74.03125 C 57.233499 75.74785 52.574278 77 51 77 C 50.377386 77 50.212679 77.05054 49.8125 76.8125 C 50.276127 74.806641 49.562989 72.604524 47.84375 71.28125 L 47.875 71.25 C 47.875 71.25 47.78215 71.1875 47.78125 71.1875 C 47.69739 71.1185 43.805024 67.8787 39.71875 64.5 C 37.653753 62.7926 35.566778 61.0919 33.9375 59.75 C 32.308222 58.4081 31.304056 57.5763 30.875 57.25 C 29.843929 56.4656 28.536478 56 27.15625 56 C 24.54262 56 22.328447 57.686638 21.4375 60 L 11.03125 60 L 11.03125 50 C 11.03125 45.806827 11.686299 41.782289 12.90625 38 z M 27.15625 60 C 27.659536 60 28.103785 60.12865 28.46875 60.40625 C 28.46125 60.39625 29.780729 61.4737 31.40625 62.8125 C 33.031771 64.1513 35.123536 65.88715 37.1875 67.59375 C 41.315428 71.00675 45.34375 74.34375 45.34375 74.34375 A 2.0002 2.0002 0 0 0 45.4375 74.40625 C 46.103905 74.89665 46.217076 75.7133 45.71875 76.375 C 45.207803 77.0535 44.345257 77.20275 43.6875 76.71875 A 2.0002 2.0002 0 0 0 43.65625 76.6875 C 43.65625 76.6875 39.221224 73.5393 34.71875 70.3125 C 32.467513 68.6991 30.198909 67.0657 28.46875 65.8125 C 27.603671 65.1859 26.867383 64.6367 26.34375 64.25 C 26.081933 64.0566 25.860973 63.921 25.71875 63.8125 C 25.576527 63.704 25.376136 63.4676 25.65625 63.75 C 25.254693 63.3455 25 62.8117 25 62.1875 C 25 60.9381 25.94345 60 27.15625 60 z " transform="translate(0,952.36218)"></path></g></svg>
